Adwaita/scalable/status/appointment-soon-symbolic.svg

<?xml version="1.0" encoding="UTF-8"?>
<svg height="16px" viewBox="0 0 16 16" width="16px" xmlns="http://www.w3.org/2000/svg">
    <path d="m 6.5 0 c -3.578125 0 -6.5 2.921875 -6.5 6.5 s 2.921875 6.5 6.5 6.5 c 0.171875 0 0.332031 -0.019531 0.5 -0.03125 v -2.03125 c -0.167969 0.019531 -0.328125 0.0625 -0.5 0.0625 c -2.496094 0 -4.5 -2.003906 -4.5 -4.5 s 2.003906 -4.5 4.5 -4.5 s 4.5 2.003906 4.5 4.5 c 0 0.171875 -0.042969 0.332031 -0.0625 0.5 h 2.03125 c 0.011719 -0.167969 0.03125 -0.328125 0.03125 -0.5 c 0 -3.578125 -2.921875 -6.5 -6.5 -6.5 z m 0 3 c -0.277344 0 -0.5 0.222656 -0.5 0.5 v 2.5 h -1.5 c -0.277344 0 -0.5 0.222656 -0.5 0.5 s 0.222656 0.5 0.5 0.5 h 2 c 0.277344 0 0.5 -0.222656 0.5 -0.5 v -3 c 0 -0.277344 -0.222656 -0.5 -0.5 -0.5 z m 0 0" fill="#2e3436"/>
    <path d="m 8.875 8.070312 c -0.492188 0 -0.875 0.378907 -0.875 0.867188 v 6.195312 c 0 0.488282 0.382812 0.867188 0.875 0.867188 h 6.25 c 0.492188 0 0.875 -0.378906 0.875 -0.867188 v -6.195312 c 0 -0.488281 -0.382812 -0.867188 -0.875 -0.867188 z m 2.125 0.929688 h 2 v 2.5 s 0 0.5 -0.5 0.5 h -1 c -0.5 0 -0.5 -0.5 -0.5 -0.5 z m 0.5 4 h 1 c 0.277344 0 0.5 0.222656 0.5 0.5 v 1 c 0 0.277344 -0.222656 0.5 -0.5 0.5 h -1 c -0.277344 0 -0.5 -0.222656 -0.5 -0.5 v -1 c 0 -0.277344 0.222656 -0.5 0.5 -0.5 z m 0 0" class="warning"  fill="#ff7800"/>
</svg>

<svg xmlns="http://www.w3.org/2000/svg" width="16" height="16"><path d="M6.5 0C2.922 0 0 2.922 0 6.5S2.922 13 6.5 13c.17 0 .333-.018.5-.031v-2.031c-.167.018-.327.062-.5.062A4.485 4.485 0 012 6.5C2 4.003 4.003 2 6.5 2S11 4.003 11 6.5c0 .173-.044.333-.063.5h2.032c.013-.167.031-.33.031-.5C13 2.922 10.078 0 6.5 0z" style="line-height:normal;-inkscape-font-specification:Sans;text-indent:0;text-align:start;text-decoration-line:none;text-transform:none;marker:none" color="#000" font-weight="400" font-size="xx-small" font-family="Sans" overflow="visible" fill="#2e3436"/><path d="M6.492 2.992A.5.5 0 006 3.5V6H4.5a.5.5 0 100 1h2a.5.5 0 00.5-.5v-3a.5.5 0 00-.508-.508z" style="line-height:normal;font-variant-ligatures:normal;font-variant-position:normal;font-variant-caps:normal;font-variant-numeric:normal;font-variant-alternates:normal;font-feature-settings:normal;text-indent:0;text-align:start;text-decoration-line:none;text-decoration-style:solid;text-decoration-color:#000;text-transform:none;text-orientation:mixed;shape-padding:0;isolation:auto;mix-blend-mode:normal" color="#000" font-weight="400" font-family="sans-serif" overflow="visible" fill="#2e3436"/><path class="warning" d="M8.875 8.068a.861.861 0 00-.875.87v6.195a.86.86 0 00.875.867h6.25a.86.86 0 00.875-.867V8.938a.861.861 0 00-.875-.87zM11 9h2v2.5s0 .5-.5.5h-1c-.5 0-.5-.5-.5-.5zm.5 4h1c.277 0 .5.223.5.5v1c0 .277-.223.5-.5.5h-1a.499.499 0 01-.5-.5v-1c0-.277.223-.5.5-.5z" style="marker:none" color="#bebebe" overflow="visible" fill="#f57900"/></svg>
